X:58
T: DEM TURNER WARD DAS SCHOENSTE ZIEL
N: B0544
O: Europa, Mitteleuropa, Deutschland
R: Turner - Lied
M: 6/8
L: 1/8
K: Bb
F | B2Bd2d | f2fd2
B | c2=eA2c | B3z2
F | B2Bd2d | f2fd2
B | c2=eA2c | B3z2
B | c2dc2B | d2fd2
B | c2Bc2f | d3z2
F | B2Bd2d | f2fd2
B | c2cf2f | B3z2

@@@ Tune index: 2276
